X: 67
T: 63. MAGGOTS IN THE SHEEP HIDE
B: Sam Bayard, "Hill Country Tunes" 1944 #63
S: Played by Mrs Sarah Armstrong, (near) Derry, PA, Nov 18, 1943.
R: jig
M: 6/8
L: 1/8
Z: 2010 John Chambers <jc:trillian.mit.edu>
%%slurgraces
K: D
B |\
A2F DFA | d2d def | gfe fed | fed Bcd |
A2F DFA | d2e f2g | aed efe | d3 d2 :: e/f/ |
g2"a."g/a/ gfe | f2{f}g fed | e2e ede | fed Bcd |
A2F DFA | d2e f2g | aed efe | d3 d2 :|
P: Var:
"a."a |]

%%sep 2 1 500
%%sep 1 1 500

